X:1
T:Flow Gently Sweet Afton
M:3/4
L:1/4
K:C
z2 G, |\
C C E/-D/ | C C G, | A, F A, | G,2 G, | C C D | E G3/ A/ | G E C | D2 G, |\
C C E/-D/ | C C G, | A, F A, | G,2 G, | C C D | E G3/ F/ | G, G, B, |\
C2 B,/-C/ | D D G | D D B, | D C A, | G,2 B,/-C/ | D D G | D D B, | C/-B,/C/-D/E/-^F/ |\
G2 A |\
G E E/-D/ | C G, C | A, F A, | G,2 G, | C C D | E G3/ E/ | G, G, B, | C2 z |]
